X: 1322
T: Miss Vearie Hay.   a Reel.
C: by D.D.
%R: reel
B: Niel Gow & Sons "Complete Repository" v.1 p.32 #2
Z: 2021 John Chambers <jc:trillian.mit.edu>
M: C|
L: 1/8
K: Bb
% - - - - - - - - - -
% Voice 1 formatted for compactness and proofreading.
V: 1 staves=2
d | B2(TFD) Cc-c.d | TB2FD FDdc | B(GTF)>D CEDC | B,FDE FBB :| (g | f)BdB fBe(g | f)Bdf gccb |
fBdB dfbg | fd(~c>B) FBBg || fBdf Bfdf | egdf gcce | dBFD FBfd | gecf dBB |]
% - - - - - - - - - -
% Voice 2 preserves the book's staff layout.
V: 2 clef=bass middle=d
z | B2B2 c2c2 | B2B2 B2B2 | e2d2 c2c2 | B2F2 B2B :| z | b2b2 b2e2 | d2B2 e2f2 |
d2B2 B2e2 | f2F2 B2B2 || b2b2 b2b2 | e2d2 c2c2 | B2B2 d2d2 | e2f2 B2B |]


